public/images/testStart.svg

<svg width="86" height="17" viewBox="0 0 86 17" fill="none" xmlns="http://www.w3.org/2000/svg">
<path d="M6.34804 3.75088C7.2265 2.175 7.66571 1.38705 8.32241 1.38705C8.97912 1.38705 9.41836 2.17499 10.2968 3.75087L10.524 4.15857C10.7737 4.60639 10.8985 4.8303 11.0931 4.97804C11.2877 5.12578 11.5301 5.18061 12.0148 5.29029L12.4562 5.39015C14.1621 5.77612 15.015 5.9691 15.2179 6.62166C15.4208 7.27418 14.8394 7.95419 13.6764 9.31411L13.3756 9.66591C13.0451 10.0524 12.8799 10.2455 12.8055 10.4846C12.7312 10.7237 12.7562 10.9815 12.8061 11.4971L12.8516 11.9665C13.0274 13.7809 13.1153 14.6881 12.5841 15.0914C12.0528 15.4947 11.2542 15.127 9.65701 14.3916L9.24381 14.2014C8.78992 13.9923 8.56298 13.8879 8.32241 13.8879C8.08185 13.8879 7.85491 13.9923 7.40106 14.2014L6.98785 14.3916C5.39063 15.127 4.59203 15.4947 4.06075 15.0914C3.52949 14.6881 3.6174 13.7809 3.79323 11.9665L3.83871 11.4971C3.88868 10.9815 3.91366 10.7237 3.83932 10.4846C3.76499 10.2455 3.59976 10.0524 3.26928 9.66591L2.96841 9.31411C1.80545 7.95419 1.22397 7.27418 1.4269 6.62166C1.62983 5.9691 2.48277 5.77612 4.18864 5.39015L4.62997 5.29029C5.11472 5.18061 5.35709 5.12578 5.55171 4.97804C5.74632 4.8303 5.87114 4.60639 6.12077 4.15857L6.34804 3.75088Z" fill="#F6BB06"/>
<path d="M23.5873 3.75088C24.4657 2.175 24.905 1.38705 25.5617 1.38705C26.2184 1.38705 26.6576 2.17499 27.536 3.75087L27.7633 4.15857C28.013 4.60639 28.1377 4.8303 28.3324 4.97804C28.527 5.12578 28.7693 5.18061 29.2541 5.29029L29.6955 5.39015C31.4013 5.77612 32.2543 5.9691 32.4572 6.62166C32.6601 7.27418 32.0786 7.95419 30.9156 9.31411L30.6148 9.66591C30.2843 10.0524 30.1191 10.2455 30.0447 10.4846C29.9704 10.7237 29.9954 10.9815 30.0454 11.4971L30.0908 11.9665C30.2667 13.7809 30.3546 14.6881 29.8234 15.0914C29.2921 15.4947 28.4935 15.127 26.8963 14.3916L26.4831 14.2014C26.0292 13.9923 25.8022 13.8879 25.5617 13.8879C25.3211 13.8879 25.0942 13.9923 24.6403 14.2014L24.2271 14.3916C22.6299 15.127 21.8313 15.4947 21.3 15.0914C20.7688 14.6881 20.8567 13.7809 21.0325 11.9665L21.078 11.4971C21.1279 10.9815 21.1529 10.7237 21.0786 10.4846C21.0042 10.2455 20.839 10.0524 20.5085 9.66591L20.2077 9.31411C19.0447 7.95419 18.4632 7.27418 18.6661 6.62166C18.8691 5.9691 19.722 5.77612 21.4279 5.39015L21.8692 5.29029C22.3539 5.18061 22.5963 5.12578 22.791 4.97804C22.9856 4.8303 23.1104 4.60639 23.36 4.15857L23.5873 3.75088Z" fill="#F6BB06"/>
<path d="M40.8266 3.75088C41.705 2.175 42.1442 1.38705 42.8009 1.38705C43.4576 1.38705 43.8969 2.17499 44.7753 3.75087L45.0025 4.15857C45.2522 4.60639 45.377 4.8303 45.5716 4.97804C45.7663 5.12578 46.0086 5.18061 46.4934 5.29029L46.9347 5.39015C48.6406 5.77612 49.4936 5.9691 49.6965 6.62166C49.8994 7.27418 49.318 7.95419 48.155 9.31411L47.8541 9.66591C47.5236 10.0524 47.3584 10.2455 47.284 10.4846C47.2097 10.7237 47.2347 10.9815 47.2846 11.4971L47.3301 11.9665C47.5059 13.7809 47.5939 14.6881 47.0626 15.0914C46.5313 15.4947 45.7327 15.127 44.1355 14.3916L43.7223 14.2014C43.2684 13.9923 43.0416 13.8879 42.8009 13.8879C42.5604 13.8879 42.3334 13.9923 41.8796 14.2014L41.4664 14.3916C39.8691 15.127 39.0705 15.4947 38.5393 15.0914C38.008 14.6881 38.0959 13.7809 38.2718 11.9665L38.3172 11.4971C38.3672 10.9815 38.3922 10.7237 38.3179 10.4846C38.2435 10.2455 38.0783 10.0524 37.7478 9.66591L37.447 9.31411C36.284 7.95419 35.7025 7.27418 35.9054 6.62166C36.1084 5.9691 36.9613 5.77612 38.6672 5.39015L39.1085 5.29029C39.5932 5.18061 39.8356 5.12578 40.0302 4.97804C40.2248 4.8303 40.3497 4.60639 40.5993 4.15857L40.8266 3.75088Z" fill="#F6BB06"/>
<path d="M58.0658 3.75088C58.9442 2.175 59.3835 1.38705 60.0402 1.38705C60.6969 1.38705 61.1361 2.17499 62.0145 3.75087L62.2418 4.15857C62.4915 4.60639 62.6163 4.8303 62.8109 4.97804C63.0055 5.12578 63.2478 5.18061 63.7326 5.29029L64.174 5.39015C65.8798 5.77612 66.7328 5.9691 66.9357 6.62166C67.1386 7.27418 66.5571 7.95419 65.3942 9.31411L65.0933 9.66591C64.7628 10.0524 64.5976 10.2455 64.5232 10.4846C64.4489 10.7237 64.4739 10.9815 64.5239 11.4971L64.5693 11.9665C64.7452 13.7809 64.8332 14.6881 64.3019 15.0914C63.7706 15.4947 62.972 15.127 61.3748 14.3916L60.9616 14.2014C60.5077 13.9923 60.2807 13.8879 60.0402 13.8879C59.7996 13.8879 59.5727 13.9923 59.1189 14.2014L58.7056 14.3916C57.1084 15.127 56.3098 15.4947 55.7786 15.0914C55.2473 14.6881 55.3352 13.7809 55.511 11.9665L55.5565 11.4971C55.6065 10.9815 55.6314 10.7237 55.5571 10.4846C55.4827 10.2455 55.3175 10.0524 54.987 9.66591L54.6862 9.31411C53.5232 7.95419 52.9417 7.27418 53.1446 6.62166C53.3476 5.9691 54.2005 5.77612 55.9064 5.39015L56.3477 5.29029C56.8324 5.18061 57.0748 5.12578 57.2695 4.97804C57.4641 4.8303 57.5889 4.60639 57.8386 4.15857L58.0658 3.75088Z" fill="#F6BB06"/>
<path d="M75.3051 3.75088C76.1836 2.175 76.6227 1.38705 77.2794 1.38705C77.9361 1.38705 78.3754 2.17499 79.2539 3.75087L79.4811 4.15857C79.7308 4.60639 79.8558 4.8303 80.0501 4.97804C80.2452 5.12578 80.4872 5.18061 80.9722 5.29029L81.4133 5.39015C83.119 5.77612 83.9718 5.9691 84.1749 6.62166C84.3779 7.27418 83.7966 7.95419 82.6333 9.31411L82.3323 9.66591C82.0018 10.0524 81.837 10.2455 81.7629 10.4846C81.6881 10.7237 81.7135 10.9815 81.7629 11.4971L81.8083 11.9665C81.9843 13.7809 82.0727 14.6881 81.5415 15.0914C81.0096 15.4947 80.2109 15.127 78.614 14.3916L78.2008 14.2014C77.7469 13.9923 77.5201 13.8879 77.2794 13.8879C77.0389 13.8879 76.8119 13.9923 76.3581 14.2014L75.9449 14.3916C74.3477 15.127 73.5491 15.4947 73.0178 15.0914C72.4865 14.6881 72.5744 13.7809 72.7503 11.9665L72.7957 11.4971C72.8457 10.9815 72.8707 10.7237 72.7964 10.4846C72.722 10.2455 72.5568 10.0524 72.2263 9.66591L71.9255 9.31411C70.7625 7.95419 70.181 7.27418 70.384 6.62166C70.5869 5.9691 71.4398 5.77612 73.1457 5.39015L73.587 5.29029C74.0718 5.18061 74.3141 5.12578 74.5087 4.97804C74.7033 4.8303 74.8282 4.60639 75.0778 4.15857L75.3051 3.75088Z" fill="#F6BB06"/>
</svg>

<svg xmlns="http://www.w3.org/2000/svg" width="86" height="17" fill="none"><path fill="#F6BB06" d="M6.348 3.75c.878-1.575 1.318-2.363 1.974-2.363.657 0 1.096.788 1.975 2.364l.227.408c.25.447.375.671.57.819s.436.203.92.312l.442.1c1.706.386 2.559.58 2.762 1.232s-.379 1.332-1.542 2.692l-.3.352c-.33.386-.496.58-.57.819-.075.239-.05.497 0 1.012l.046.47c.175 1.814.263 2.721-.268 3.124-.531.404-1.33.036-2.927-.7l-.413-.19c-.454-.209-.681-.313-.922-.313-.24 0-.467.104-.92.313l-.414.19c-1.597.736-2.396 1.104-2.927.7-.532-.403-.444-1.31-.268-3.124l.046-.47c.05-.515.075-.773 0-1.012-.074-.24-.24-.433-.57-.82l-.3-.35c-1.164-1.36-1.745-2.04-1.542-2.693s1.056-.846 2.762-1.232l.441-.1c.485-.11.727-.164.922-.312.194-.148.32-.372.569-.82zM23.587 3.75c.879-1.575 1.318-2.363 1.975-2.363.656 0 1.096.788 1.974 2.364l.227.408c.25.447.375.671.57.819s.436.203.921.312l.441.1c1.706.386 2.56.58 2.762 1.232.203.652-.378 1.332-1.541 2.692l-.301.352c-.33.386-.496.58-.57.819-.075.239-.05.497 0 1.012l.046.47c.176 1.814.264 2.721-.268 3.124-.53.404-1.33.036-2.927-.7l-.413-.19c-.454-.209-.68-.313-.921-.313-.24 0-.468.104-.922.313l-.413.19c-1.597.736-2.396 1.104-2.927.7-.531-.403-.443-1.31-.268-3.124l.046-.47c.05-.515.075-.773 0-1.012-.074-.24-.239-.433-.57-.82l-.3-.35c-1.163-1.36-1.745-2.04-1.542-2.693s1.056-.846 2.762-1.232l.441-.1c.485-.11.727-.164.922-.312s.32-.372.569-.82zM40.827 3.75c.878-1.575 1.317-2.363 1.974-2.363s1.096.788 1.974 2.364l.227.408c.25.447.375.671.57.819s.437.203.921.312l.442.1c1.706.386 2.559.58 2.761 1.232.203.652-.378 1.332-1.541 2.692l-.3.352c-.331.386-.497.58-.571.819s-.05.497 0 1.012l.046.47c.176 1.814.264 2.721-.267 3.124-.532.404-1.33.036-2.928-.7l-.413-.19c-.454-.209-.68-.313-.921-.313-.24 0-.468.104-.921.313l-.414.19c-1.597.736-2.395 1.104-2.927.7-.531-.403-.443-1.31-.267-3.124l.045-.47c.05-.515.075-.773 0-1.012-.074-.24-.239-.433-.57-.82l-.3-.35c-1.163-1.36-1.745-2.04-1.542-2.693s1.056-.846 2.762-1.232l.441-.1c.485-.11.728-.164.922-.312s.32-.372.57-.82zM58.066 3.75c.878-1.575 1.317-2.363 1.974-2.363s1.096.788 1.974 2.364l.228.408c.25.447.374.671.569.819s.437.203.922.312l.441.1c1.706.386 2.559.58 2.762 1.232s-.379 1.332-1.542 2.692l-.3.352c-.331.386-.496.58-.57.819-.075.239-.05.497 0 1.012l.045.47c.176 1.814.264 2.721-.267 3.124-.531.404-1.33.036-2.927-.7l-.413-.19c-.454-.209-.681-.313-.922-.313-.24 0-.467.104-.921.313l-.413.19c-1.598.736-2.396 1.104-2.927.7-.532-.403-.444-1.31-.268-3.124l.045-.47c.05-.515.075-.773.001-1.012-.074-.24-.24-.433-.57-.82l-.3-.35c-1.164-1.36-1.745-2.04-1.542-2.693s1.055-.846 2.761-1.232l.442-.1c.484-.11.727-.164.922-.312.194-.148.319-.372.569-.82zM75.305 3.75c.879-1.575 1.318-2.363 1.974-2.363.657 0 1.096.788 1.975 2.364l.227.408c.25.447.375.671.57.819s.436.203.921.312l.441.1c1.706.386 2.559.58 2.762 1.232s-.378 1.332-1.542 2.692l-.3.352c-.331.386-.496.58-.57.819-.075.239-.05.497 0 1.012l.045.47c.176 1.814.265 2.721-.267 3.124-.531.404-1.33.036-2.927-.7l-.413-.19c-.454-.209-.68-.313-.922-.313-.24 0-.467.104-.92.313l-.414.19c-1.597.736-2.396 1.104-2.927.7-.531-.403-.444-1.31-.268-3.124l.046-.47c.05-.515.075-.773 0-1.012-.074-.24-.24-.433-.57-.82l-.3-.35c-1.163-1.36-1.745-2.04-1.542-2.693s1.056-.846 2.762-1.232l.441-.1c.485-.11.727-.164.922-.312.194-.148.32-.372.569-.82z"/></svg>
